Newaita-dark/apps/32/gmail.svg

<svg height="32" width="32" xmlns="http://www.w3.org/2000/svg" xmlns:xlink="http://www.w3.org/1999/xlink"><linearGradient id="a" gradientUnits="userSpaceOnUse" x1="15.875" x2="15.875" y1="26.70975" y2="28.0326875"><stop offset="0" stop-opacity=".275"/><stop offset="1" stop-opacity="0"/></linearGradient><linearGradient id="b"><stop offset="0" stop-opacity=".314"/><stop offset=".222" stop-opacity=".275"/><stop offset="1" stop-opacity="0"/></linearGradient><radialGradient id="c" cx="450.909" cy="189.579" gradientTransform="matrix(0 -.07813 -.14064 0 53.454 62.272)" gradientUnits="userSpaceOnUse" r="21.167" xlink:href="#b"/><radialGradient id="d" cx="450.909" cy="189.579" gradientTransform="matrix(0 .07813 .14064 0 -21.7 -8.85)" gradientUnits="userSpaceOnUse" r="21.167" xlink:href="#b"/><radialGradient id="e" cx="450.909" cy="189.579" gradientTransform="matrix(0 -.07813 .14064 0 -21.7 62.272)" gradientUnits="userSpaceOnUse" r="21.167" xlink:href="#b"/><radialGradient id="f" cx="450.909" cy="189.579" gradientTransform="matrix(0 .07813 -.14064 0 53.454 -8.85)" gradientUnits="userSpaceOnUse" r="21.167" xlink:href="#b"/><linearGradient id="g"><stop offset="0" stop-color="#f44336"/><stop offset="1" stop-color="#ef5350"/></linearGradient><linearGradient id="h" gradientTransform="matrix(.07535 0 0 .21741 -5.854 33.641)" gradientUnits="userSpaceOnUse" x1="305.955" x2="305.955" xlink:href="#g" y1="-31.877" y2="-135.329"/><linearGradient id="i" gradientTransform="matrix(.016538 .0002572 -.0002572 .016538 0 0)" gradientUnits="userSpaceOnUse" x1="960" x2="960" xlink:href="#g" y1="1095.118" y2="255.118"/><path d="m4.629 26.71h22.491v1.286h-22.49zm0 0" fill="url(#a)"/><path d="m27.121 26.71h2.649v-1.323h-2.65zm0 0" fill="url(#c)"/><path d="m4.629 26.71h-2.645v1.325h2.646zm0 0" fill="url(#d)"/><path d="m4.629 26.71h-2.645v-1.323h2.646zm0 0" fill="url(#e)"/><path d="m27.121 26.71h2.649v1.325h-2.65zm0 0" fill="url(#f)"/><path d="m3.309 4.219h25.136c.73 0 1.325.593 1.325 1.324v19.844c0 .73-.594 1.324-1.325 1.324h-25.135c-.73 0-1.325-.594-1.325-1.324v-19.844c0-.73.594-1.324 1.325-1.324zm0 0" fill="#eee"/><path d="m3.309 4.219a1.32 1.32 0 0 0 -1.325 1.324v.164c0-.73.59-1.324 1.325-1.324h25.136c.735 0 1.325.594 1.325 1.324v-.164a1.32 1.32 0 0 0 -1.325-1.324zm0 0" fill="#e6e6e6" fill-opacity=".937"/><path d="m3.309 4.219a1.32 1.32 0 0 0 -1.325 1.324v19.844c0 .734.59 1.324 1.325 1.324h.66v-22.492zm24.476 0v22.491h.66a1.32 1.32 0 0 0 1.325-1.324v-19.843a1.32 1.32 0 0 0 -1.325-1.324zm0 0" fill="url(#h)"/><path d="m27.785 26.71v-20.174m-23.816 20.174v-20.174" fill="none" stroke="#212121" stroke-width=".18753"/><path d="m3.309 4.219c-.735 0-1.325.515-1.325 1.156l12.57 12.406c.497.496.91.742 1.321.742.414 0 .828-.246 1.324-.742l12.571-12.406c0-.64-.59-1.156-1.324-1.156zm0 0" fill="url(#i)"/><path d="m3.637 4.219 11.36 11.289c.327.34.605.512.878.512.277 0 .555-.172.883-.512l11.687-11.29zm0 0" fill="#eee"/><path d="m2.203 5.563a1.066 1.066 0 0 0 -.219.64l12.57 12.402c.497.497.91.747 1.321.747.414 0 .828-.25 1.324-.747l12.571-12.402c0-.238-.081-.457-.218-.64l-12.353 12.187c-.496.496-.91.746-1.324.746-.41 0-.824-.25-1.32-.746zm-.219 19.48v.25c0 .73.59 1.32 1.325 1.32h25.136a1.32 1.32 0 0 0 1.325-1.32v-.25a1.32 1.32 0 0 1 -1.325 1.324h-25.135a1.32 1.32 0 0 1 -1.325-1.324zm0 0" fill-opacity=".235"/><path d="m3.309 4.336c-.735 0-1.325.516-1.325 1.156l.028.024c.12-.528.652-.926 1.297-.926h25.136c.64 0 1.176.398 1.297.926l.028-.024c0-.64-.59-1.156-1.325-1.156zm0 0" fill="#fff" fill-opacity=".392"/><path d="m3.309 4.125h-.059c-.75.027-1.36.57-1.36 1.25l.008.02a1.793 1.793 0 0 0 -.007.148v19.844c0 .785.632 1.418 1.418 1.418h25.136c.785 0 1.418-.633 1.418-1.418v-19.844c0-.05-.004-.102-.008-.148l.008-.02c0-.68-.61-1.223-1.36-1.25h-.054-.004zm0 .188h.293l11.328 11.26c.336.348.633.54.945.54.316 0 .613-.192.95-.54l11.655-11.26c.602.019 1.09.46 1.18 1.039l-12.527 12.363c-.488.488-.88.715-1.258.715-.375 0-.766-.227-1.254-.715l-12.527-12.363c.09-.59.597-1.04 1.215-1.04zm.558 0h24.348l-11.52 11.127h-.004c-.324.332-.578.485-.816.485-.234 0-.488-.153-.813-.485zm25.809 1.289v19.785c0 .683-.547 1.23-1.23 1.23h-25.138c-.684 0-1.23-.547-1.23-1.23v-19.785l12.41 12.246c.503.504.937.77 1.386.77.453 0 .887-.266 1.39-.77zm0 0" fill="#212121"/></svg>

<svg xmlns="http://www.w3.org/2000/svg" width="32" height="32"><defs><linearGradient id="a" gradientUnits="userSpaceOnUse" x1="254" y1="233.5" x2="254" y2="254.667" gradientTransform="matrix(.0625 0 0 .0625 0 12.116)"><stop offset="0" stop-opacity=".275"/><stop offset="1" stop-opacity="0"/></linearGradient><radialGradient id="b" gradientUnits="userSpaceOnUse" cx="450.909" cy="189.579" fx="450.909" fy="189.579" r="21.167" gradientTransform="matrix(0 -.07813 -.14064 0 53.454 62.272)"><stop offset="0" stop-opacity=".314"/><stop offset=".222" stop-opacity=".275"/><stop offset="1" stop-opacity="0"/></radialGradient><radialGradient id="c" gradientUnits="userSpaceOnUse" cx="450.909" cy="189.579" fx="450.909" fy="189.579" r="21.167" gradientTransform="matrix(0 .07813 .14064 0 -21.7 -8.85)"><stop offset="0" stop-opacity=".314"/><stop offset=".222" stop-opacity=".275"/><stop offset="1" stop-opacity="0"/></radialGradient><radialGradient id="d" gradientUnits="userSpaceOnUse" cx="450.909" cy="189.579" fx="450.909" fy="189.579" r="21.167" gradientTransform="matrix(0 -.07813 .14064 0 -21.7 62.272)"><stop offset="0" stop-opacity=".314"/><stop offset=".222" stop-opacity=".275"/><stop offset="1" stop-opacity="0"/></radialGradient><radialGradient id="e" gradientUnits="userSpaceOnUse" cx="450.909" cy="189.579" fx="450.909" fy="189.579" r="21.167" gradientTransform="matrix(0 .07813 -.14064 0 53.454 -8.85)"><stop offset="0" stop-opacity=".314"/><stop offset=".222" stop-opacity=".275"/><stop offset="1" stop-opacity="0"/></radialGradient><linearGradient id="f" gradientUnits="userSpaceOnUse" x1="305.955" y1="-31.877" x2="305.955" y2="-135.329" gradientTransform="matrix(.07535 0 0 .21741 -5.854 33.641)"><stop offset="0" stop-color="#f44336"/><stop offset="1" stop-color="#ef5350"/></linearGradient><linearGradient id="g" gradientUnits="userSpaceOnUse" x1="960" y1="1095.118" x2="960" y2="255.118" gradientTransform="rotate(.891) scale(.01654)"><stop offset="0" stop-color="#f44336"/><stop offset="1" stop-color="#ef5350"/></linearGradient></defs><path d="M4.629 26.71H27.12v1.286H4.63zm0 0" fill="url(#a)"/><path d="M27.121 26.71h2.649v-1.323H27.12zm0 0" fill="url(#b)"/><path d="M4.629 26.71H1.984v1.325H4.63zm0 0" fill="url(#c)"/><path d="M4.629 26.71H1.984v-1.323H4.63zm0 0" fill="url(#d)"/><path d="M27.121 26.71h2.649v1.325H27.12zm0 0" fill="url(#e)"/><path d="M3.309 4.219h25.136c.73 0 1.325.593 1.325 1.324v19.844c0 .73-.594 1.324-1.325 1.324H3.31c-.73 0-1.325-.594-1.325-1.324V5.543c0-.73.594-1.324 1.325-1.324zm0 0" fill="#eee"/><path d="M3.309 4.219a1.32 1.32 0 0 0-1.325 1.324v.164c0-.73.59-1.324 1.325-1.324h25.136c.735 0 1.325.594 1.325 1.324v-.164a1.32 1.32 0 0 0-1.325-1.324zm0 0" fill="#e6e6e6" fill-opacity=".937"/><path d="M3.309 4.219a1.32 1.32 0 0 0-1.325 1.324v19.844c0 .734.59 1.324 1.325 1.324h.66V4.219zm24.476 0V26.71h.66a1.32 1.32 0 0 0 1.325-1.324V5.543a1.32 1.32 0 0 0-1.325-1.324zm0 0" fill="url(#f)"/><path d="M27.785 26.71V6.536M3.969 26.71V6.536" fill="none" stroke-width=".18752999999999997" stroke="#212121"/><path d="M3.309 4.219c-.735 0-1.325.515-1.325 1.156l12.57 12.406c.497.496.91.742 1.321.742.414 0 .828-.246 1.324-.742L29.77 5.375c0-.64-.59-1.156-1.324-1.156zm0 0" fill="url(#g)"/><path d="M3.637 4.219l11.36 11.289c.327.34.605.512.878.512.277 0 .555-.172.883-.512l11.687-11.29zm0 0" fill="#eee"/><path d="M2.203 5.563a1.066 1.066 0 0 0-.219.64l12.57 12.402c.497.497.91.747 1.321.747.414 0 .828-.25 1.324-.747L29.77 6.203c0-.238-.081-.457-.218-.64L17.199 17.75c-.496.496-.91.746-1.324.746-.41 0-.824-.25-1.32-.746zm0 0M1.984 25.043v.25c0 .73.59 1.32 1.325 1.32h25.136a1.32 1.32 0 0 0 1.325-1.32v-.25a1.32 1.32 0 0 1-1.325 1.324H3.31a1.32 1.32 0 0 1-1.325-1.324zm0 0" fill-opacity=".235"/><path d="M3.309 4.336c-.735 0-1.325.516-1.325 1.156l.028.024c.12-.528.652-.926 1.297-.926h25.136c.64 0 1.176.398 1.297.926l.028-.024c0-.64-.59-1.156-1.325-1.156zm0 0" fill="#fff" fill-opacity=".392"/><path d="M3.309 4.125H3.25c-.75.027-1.36.57-1.36 1.25l.008.02a1.793 1.793 0 0 0-.007.148v19.844c0 .785.632 1.418 1.418 1.418h25.136c.785 0 1.418-.633 1.418-1.418V5.543c0-.05-.004-.102-.008-.148l.008-.02c0-.68-.61-1.223-1.36-1.25h-.054-.004zm0 .188h.293L14.93 15.573c.336.348.633.54.945.54.316 0 .613-.192.95-.54L28.48 4.313c.602.019 1.09.46 1.18 1.039L17.133 17.715c-.488.488-.88.715-1.258.715-.375 0-.766-.227-1.254-.715L2.094 5.352c.09-.59.597-1.04 1.215-1.04zm.558 0h24.348L16.695 15.44h-.004c-.324.332-.578.485-.816.485-.234 0-.488-.153-.813-.485zm25.809 1.289v19.785c0 .683-.547 1.23-1.23 1.23H3.308c-.684 0-1.23-.547-1.23-1.23V5.602l12.41 12.246c.503.504.937.77 1.386.77.453 0 .887-.266 1.39-.77zm0 0" fill="#212121"/></svg>
